src/Icon/svgs/VolumeMuteOutline.svg

<svg width="24" height="24" viewBox="0 0 24 24" fill="none" xmlns="http://www.w3.org/2000/svg">
<path fill-rule="evenodd" clip-rule="evenodd" d="M20.5 20L19 21.5L13 15.5V20C13 20.3688 12.797 20.7077 12.4719 20.8817C12.1467 21.0557 11.7522 21.0366 11.4453 20.8321L5.69722 17L2 17C1.44772 17 1 16.5523 1 16V8C1 7.44772 1.44772 7 2 7L4.5 7L1.5 4L3 2.5L20.5 20ZM3 9V15H6C6.19742 15 6.39043 15.0584 6.5547 15.168L11 18.1315V13.5L6.41144 8.91144C6.28269 8.96956 6.1425 9 6 9H3Z" fill="#1B1C1D"/>
<path d="M13 4V9.5L11 7.5V5.86852L10.0211 6.52111L8.57889 5.07889L11.4453 3.16795C11.7522 2.96338 12.1467 2.94431 12.4719 3.11833C12.797 3.29235 13 3.63121 13 4Z" fill="#1B1C1D"/>
<path d="M23 12C23 14.2194 22.462 16.2948 21.5316 18.0316L20.0413 16.5413C20.6492 15.2125 21 13.6627 21 12C21 8.98783 19.8488 6.34636 18.1031 4.71748L19.6791 3.45672C21.7136 5.48075 23 8.56811 23 12Z" fill="#1B1C1D"/>
<path d="M19 12C19 13.0559 18.8206 14.067 18.4937 14.9937L16.8692 13.3692C16.9547 12.9302 17 12.472 17 12C17 10.0257 16.2072 8.29171 14.9973 7.20219L16.5748 5.9402C18.0649 7.41238 19 9.58934 19 12Z" fill="#1B1C1D"/>
</svg>

<svg xmlns="http://www.w3.org/2000/svg" width="24" height="24" fill="#1b1c1d"  xmlns:v="https://vecta.io/nano"><path fill-rule="evenodd" d="M20.5 20L19 21.5l-6-6V20a1 1 0 0 1-1.555.832L5.697 17H2a1 1 0 0 1-1-1V8a1 1 0 0 1 1-1h2.5l-3-3L3 2.5 20.5 20zM3 9v6h3a1 1 0 0 1 .555.168L11 18.132V13.5L6.411 8.911A1 1 0 0 1 6 9H3z"/><path d="M13 4v5.5l-2-2V5.869l-.979.653L8.579 5.08l2.866-1.911A1 1 0 0 1 13 4zm10 8c0 2.219-.538 4.295-1.468 6.032l-1.49-1.49C20.649 15.213 21 13.663 21 12c0-3.012-1.151-5.654-2.897-7.283l1.576-1.261C21.714 5.481 23 8.568 23 12zm-4 0c0 1.056-.179 2.067-.506 2.994l-1.625-1.625A7.16 7.16 0 0 0 17 12c0-1.974-.793-3.708-2.003-4.798l1.578-1.262C18.065 7.412 19 9.589 19 12z"/></svg>
